X:1
T: Draw the Sword Scotland
C:
R:Reel
Q: 232
K:G
M:4/4
L:1/8
|:GA|BA Bc d2 g2|e2 g2 d2 g2|BA Bc d2 gf|ed cB A2 GA|
BA Bc d2 g2|e2 g2 d2 g2|BA Bc d2 gf|ed cB A2 ga|
b2 ag a2 e2|g2 e2 d2 B2|b2 ag a2 e2|eg fa g2 ga|
b2 ag a2 e2|gf ge d2 dc|BA Bc d2 gf|eg fa g2:|
